src/assets/icons/media-reading-writing,fancy,airpods.svg

<svg width="48" height="48" viewBox="0 0 48 48" fill="none" xmlns="http://www.w3.org/2000/svg">
<path fill-rule="evenodd" clip-rule="evenodd" d="M15.8876 36.1429V38C15.8876 38.5523 16.3353 39 16.8876 39H20.602C21.1543 39 21.602 38.5523 21.602 38V18.5108C21.602 13.2581 17.3439 9 12.0913 9C8.57771 9 5.64388 11.6792 5.32578 15.1784L5.02109 18.53C4.73216 21.7081 7.45411 24.3399 10.6207 23.9441L13.6396 23.5667C14.8333 23.4175 15.8876 24.3483 15.8876 25.5513V33.2857H21.6017V36.1429H15.8876ZM10.1732 16.8571C9.35465 16.8571 8.74459 17.4552 8.74459 18.2857V20.4286C8.74459 21.2591 9.35465 21.8571 10.1732 21.8571C10.9917 21.8571 11.6017 21.2591 11.6017 20.4286V18.2857C11.6017 17.4552 10.9917 16.8571 10.1732 16.8571Z" fill="black"/>
<g opacity="0.6">
<path d="M15.887 33.2855H21.6013V36.1426H15.887V33.2855Z" fill="black"/>
<path d="M8.74414 18.2855C8.74414 17.455 9.35419 16.8569 10.1727 16.8569C10.9912 16.8569 11.6013 17.455 11.6013 18.2855V20.4284C11.6013 21.2589 10.9912 21.8569 10.1727 21.8569C9.35419 21.8569 8.74414 21.2589 8.74414 20.4284V18.2855Z" fill="black"/>
</g>
<path fill-rule="evenodd" clip-rule="evenodd" d="M33.0303 36.1429L33.0303 38C33.0303 38.5523 32.5826 39 32.0303 39H28.3159C27.7636 39 27.3159 38.5523 27.3159 38V18.5108C27.3159 13.2581 31.574 9 36.8267 9C40.3403 9 43.2741 11.6792 43.5922 15.1784L43.8969 18.53C44.1858 21.7081 41.4639 24.3399 38.2973 23.9441L35.2784 23.5667C34.0847 23.4175 33.0303 24.3483 33.0303 25.5513L33.0303 33.2857H27.3161V36.1429H33.0303ZM38.7446 16.8571C39.5631 16.8571 40.1732 17.4552 40.1732 18.2857V20.4286C40.1732 21.2591 39.5631 21.8571 38.7446 21.8571C37.9261 21.8571 37.3161 21.2591 37.3161 20.4286V18.2857C37.3161 17.4552 37.9261 16.8571 38.7446 16.8571Z" fill="black"/>
<g opacity="0.6">
<path d="M33.03 33.2855H27.3157V36.1426H33.03V33.2855Z" fill="black"/>
<path d="M40.1729 18.2855C40.1729 17.455 39.5628 16.8569 38.7443 16.8569C37.9258 16.8569 37.3157 17.455 37.3157 18.2855V20.4284C37.3157 21.2589 37.9258 21.8569 38.7443 21.8569C39.5628 21.8569 40.1729 21.2589 40.1729 20.4284V18.2855Z" fill="black"/>
</g>
</svg>

<svg xmlns="http://www.w3.org/2000/svg" width="48" height="48" fill="none" viewBox="0 0 48 48">
  <path fill="#000" fill-rule="evenodd" d="M15.888 36.143V38a1 1 0 001 1h3.714a1 1 0 001-1V18.51A9.51 9.51 0 0012.092 9a6.793 6.793 0 00-6.766 6.178L5.02 18.53c-.289 3.178 2.433 5.81 5.6 5.414l3.019-.377a2 2 0 012.248 1.984v7.735h5.714v2.857h-5.714zm-5.715-19.286c-.818 0-1.428.598-1.428 1.429v2.143c0 .83.61 1.428 1.428 1.428.819 0 1.429-.598 1.429-1.428v-2.143c0-.83-.61-1.429-1.429-1.429z" clip-rule="evenodd"/>
  <g opacity=".6">
    <path fill="#000" d="M15.887 33.285h5.714v2.858h-5.714v-2.858zM8.744 18.285c0-.83.61-1.428 1.429-1.428.818 0 1.428.598 1.428 1.428v2.143c0 .83-.61 1.429-1.428 1.429-.819 0-1.429-.598-1.429-1.429v-2.143z"/>
  </g>
  <g>
    <path fill="#000" fill-rule="evenodd" d="M33.03 36.143V38a1 1 0 01-1 1h-3.714a1 1 0 01-1-1V18.51A9.51 9.51 0 0136.826 9a6.793 6.793 0 016.766 6.178l.305 3.352c.289 3.178-2.433 5.81-5.6 5.414l-3.019-.377a2 2 0 00-2.248 1.984v7.735h-5.714v2.857h5.714zm5.715-19.286c.818 0 1.428.598 1.428 1.429v2.143c0 .83-.61 1.428-1.428 1.428-.819 0-1.429-.598-1.429-1.428v-2.143c0-.83.61-1.429 1.429-1.429z" clip-rule="evenodd"/>
    <g opacity=".6">
      <path fill="#000" d="M33.03 33.285h-5.714v2.858h5.714v-2.858zM40.173 18.285c0-.83-.61-1.428-1.429-1.428-.818 0-1.428.598-1.428 1.428v2.143c0 .83.61 1.429 1.428 1.429.819 0 1.429-.598 1.429-1.429v-2.143z"/>
    </g>
  </g>
</svg>
